data/AlexaV3_EI1000_LogC2Video_Rec709_LL_aftereffects3d.cube
# Alexa conversion LUT, logc2video, itu709. Legal in/legal out.
# created by alexalutconv (2.09)
LUT_3D_SIZE 32
0.062561 0.062561 0.062561
0.062561 0.062561 0.062561
0.062561 0.062561 0.062561
0.062561 0.062561 0.062561
0.074074 0.062561 0.062645
0.099697 0.062561 0.062830
0.130791 0.062561 0.063076
0.165176 0.062561 0.063461
0.203954 0.062561 0.064070
0.248946 0.062561 0.065044
0.306801 0.062561 0.066779
0.374997 0.062561 0.069625
0.447947 0.062561 0.073766
0.520948 0.062561 0.079187
0.593345 0.062561 0.085966
0.664829 0.062561 0.094160
0.734968 0.062561 0.103770
0.803317 0.062561 0.114637
0.869419 0.062561 0.125481
0.918866 0.062561 0.134949
0.918866 0.062561 0.142250
0.918866 0.062561 0.147678
0.918866 0.062561 0.151527
0.918866 0.062561 0.154089
0.918866 0.062561 0.155658
0.918866 0.062561 0.156526
0.918866 0.062561 0.156986
0.918866 0.062561 0.157331
0.918866 0.062561 0.157656
0.918866 0.062561 0.157656
0.918866 0.062561 0.157656
0.918866 0.062561 0.157656
0.062561 0.062561 0.062561
0.062561 0.062561 0.062561
0.062561 0.062561 0.062561
0.062561 0.062561 0.062561
0.074074 0.062561 0.062645
0.099697 0.062561 0.062830
0.130791 0.062561 0.063076
0.165176 0.062561 0.063461
0.203954 0.062561 0.064070
0.248946 0.062561 0.065044
0.306801 0.062561 0.066779
0.374997 0.062561 0.069625
0.447947 0.062561 0.073766
0.520948 0.062561 0.079187
0.593345 0.062561 0.085966
0.664829 0.062561 0.094160
0.734968 0.062561 0.103770
0.803317 0.062561 0.114637
0.869419 0.062561 0.125481
0.918866 0.062561 0.134949
0.918866 0.062561 0.142250
0.918866 0.062561 0.147678
0.918866 0.062561 0.151527
0.918866 0.062561 0.154089
0.918866 0.062561 0.155658
0.918866 0.062561 0.156526
0.918866 0.062561 0.156986
0.918866 0.062561 0.157331
0.918866 0.062561 0.157656
0.918866 0.062561 0.157656
0.918866 0.062561 0.157656
0.918866 0.062561 0.157656
0.062561 0.062561 0.062561
0.062561 0.062561 0.062561
0.062561 0.062561 0.062561
0.062561 0.062561 0.062561
0.074074 0.062561 0.062645
0.099697 0.062561 0.062830
0.130791 0.062561 0.063076
0.165176 0.062561 0.063461
0.203954 0.062561 0.064070
0.248946 0.062561 0.065044
0.306801 0.062561 0.066779
0.374997 0.062561 0.069625
0.447947 0.062561 0.073766
0.520948 0.062561 0.079187
0.593345 0.062561 0.085966
0.664829 0.062561 0.094160
0.734968 0.062561 0.103770
0.803317 0.062561 0.114637
0.869419 0.062561 0.125481
0.918866 0.062561 0.134949
0.918866 0.062561 0.142250
0.918866 0.062561 0.147678
0.918866 0.062561 0.151527
0.918866 0.062561 0.154089
0.918866 0.062561 0.155658
0.918866 0.062561 0.156526
0.918866 0.062561 0.156986
0.918866 0.062561 0.157331
0.918866 0.062561 0.157656
0.918866 0.062561 0.157656
0.918866 0.062561 0.157656
0.918866 0.062561 0.157656
0.062561 0.062561 0.062561
0.062561 0.062561 0.062561
0.062561 0.062561 0.062561
0.062561 0.062561 0.062561
0.074074 0.062561 0.062645
0.099697 0.062561 0.062830
0.130791 0.062561 0.063076
0.165176 0.062561 0.063461
0.203954 0.062561 0.064070
0.248946 0.062561 0.065044
0.306801 0.062561 0.066779
0.374997 0.062561 0.069625
0.447947 0.062561 0.073766
0.520948 0.062561 0.079187
0.593345 0.062561 0.085966
0.664829 0.062561 0.094160
0.734968 0.062561 0.103770
0.803317 0.062561 0.114637
0.869419 0.062561 0.125481
0.918866 0.062561 0.134949
0.918866 0.062561 0.142250
0.918866 0.062561 0.147678
0.918866 0.062561 0.151527
0.918866 0.062561 0.154089
0.918866 0.062561 0.155658
0.918866 0.062561 0.156526
0.918866 0.062561 0.156986
0.918866 0.062561 0.157331
0.918866 0.062561 0.157656
0.918866 0.062561 0.157656
0.918866 0.062561 0.157656
0.918866 0.062561 0.157656
0.062561 0.072507 0.062561
0.062561 0.072507 0.062561
0.062561 0.072507 0.062561
0.062561 0.072507 0.062561
0.070963 0.072246 0.062561
0.096587 0.071663 0.062561
0.128323 0.070895 0.062561
0.163453 0.069690 0.062561
0.202716 0.067784 0.063124
0.248044 0.064736 0.064097
0.306157 0.062561 0.065833
0.374533 0.062561 0.068679
0.447601 0.062561 0.072820
0.520678 0.062561 0.078241
0.593128 0.062561 0.085020
0.664649 0.062561 0.093214
0.734816 0.062561 0.102824
0.803186 0.062561 0.113733
0.869304 0.062561 0.124690
0.918866 0.062561 0.134240
0.918866 0.062561 0.141596
0.918866 0.062561 0.147059
0.918866 0.062561 0.150932
0.918866 0.062561 0.153509
0.918866 0.062561 0.155087
0.918866 0.062561 0.155960
0.918866 0.062561 0.156423
0.918866 0.062561 0.156770
0.918866 0.062561 0.157096
0.918866 0.062561 0.157096
0.918866 0.062561 0.157096
0.918866 0.062561 0.157096
0.062561 0.094643 0.062561
0.062561 0.094643 0.062561
0.062561 0.094643 0.062561
0.062561 0.094643 0.062561
0.064041 0.094381 0.062561
0.089664 0.093799 0.062561
0.122562 0.093031 0.062561
0.159515 0.091826 0.062561
0.199918 0.089919 0.062561
0.246018 0.086872 0.062561
0.304716 0.081440 0.063728
0.373496 0.072530 0.066574
0.446828 0.062561 0.070715
0.520076 0.062561 0.076136
0.592644 0.062561 0.082915
0.664249 0.062561 0.091109
0.734477 0.062561 0.100719
0.802894 0.062561 0.111682
0.869049 0.062561 0.122903
0.918866 0.062561 0.132642
0.918866 0.062561 0.140122
0.918866 0.062561 0.145669
0.918866 0.062561 0.149595
0.918866 0.062561 0.152207
0.918866 0.062561 0.153805
0.918866 0.062561 0.154689
0.918866 0.062561 0.155158
0.918866 0.062561 0.155509
0.918866 0.062561 0.155840
0.918866 0.062561 0.155840
0.918866 0.062561 0.155840
0.918866 0.062561 0.155840
0.062561 0.122882 0.062561
0.062561 0.122882 0.062561
0.062561 0.122882 0.062561
0.062561 0.122882 0.062561
0.062561 0.122658 0.062561
0.080521 0.122155 0.062561
0.114277 0.121487 0.062561
0.154076 0.120429 0.062561
0.196125 0.118725 0.062561
0.243302 0.115926 0.062561
0.302796 0.110675 0.062561
0.372120 0.101764 0.063794
0.445804 0.088803 0.067934
0.519280 0.071833 0.073356
0.592003 0.062561 0.080135
0.663720 0.062561 0.088329
0.734030 0.062561 0.097938
0.802510 0.062561 0.108908
0.868712 0.062561 0.120483
0.918866 0.062561 0.130485
0.918866 0.062561 0.138139
0.918866 0.062561 0.143800
0.918866 0.062561 0.147802
0.918866 0.062561 0.150461
0.918866 0.062561 0.152087
0.918866 0.062561 0.152986
0.918866 0.062561 0.153462
0.918866 0.062561 0.153820
0.918866 0.062561 0.154156
0.918866 0.062561 0.154156
0.918866 0.062561 0.154156
0.918866 0.062561 0.154156
0.062561 0.155470 0.062561
0.062561 0.155470 0.062561
0.062561 0.155470 0.062561
0.062561 0.155470 0.062561
0.062561 0.155312 0.062561
0.066190 0.154960 0.062561
0.100031 0.154493 0.062561
0.144909 0.153757 0.062561
0.189939 0.152582 0.062561
0.238944 0.150674 0.062561
0.299747 0.147178 0.062561
0.369946 0.141156 0.062561
0.444191 0.131637 0.063576
0.518028 0.117360 0.068997
0.590998 0.096434 0.075776
0.662889 0.070784 0.083970
0.733329 0.062561 0.093579
0.801906 0.062561 0.104549
0.868184 0.062561 0.116537
0.918866 0.062561 0.126996
0.918866 0.062561 0.134943
0.918866 0.062561 0.140796
0.918866 0.062561 0.144923
0.918866 0.062561 0.147660
0.918866 0.062561 0.149332
0.918866 0.062561 0.150257
0.918866 0.062561 0.150746
0.918866 0.062561 0.151114
0.918866 0.062561 0.151459
0.918866 0.062561 0.151459
0.918866 0.062561 0.151459
0.918866 0.062561 0.151459
0.062561 0.192221 0.062561
0.062561 0.192221 0.062561
0.062561 0.192221 0.062561
0.062561 0.192221 0.062561
0.062561 0.192107 0.062561
0.062561 0.191854 0.062561
0.077356 0.191518 0.062561
0.128298 0.190991 0.062561
0.179455 0.190151 0.062561
0.231779 0.188797 0.062561
0.294816 0.186345 0.062561
0.366463 0.182210 0.062561
0.441619 0.175922 0.062561
0.516037 0.167125 0.062561
0.589400 0.155010 0.068880
0.661571 0.138109 0.077074
0.732216 0.113168 0.086683
0.800949 0.078870 0.097653
0.867347 0.062561 0.109867
0.918866 0.062561 0.121163
0.918866 0.062561 0.129639
0.918866 0.062561 0.135836
0.918866 0.062561 0.140183
0.918866 0.062561 0.143057
0.918866 0.062561 0.144810
0.918866 0.062561 0.145779
0.918866 0.062561 0.146291
0.918866 0.062561 0.146676
0.918866 0.062561 0.147036
0.918866 0.062561 0.147036
0.918866 0.062561 0.147036
0.918866 0.062561 0.147036
0.062561 0.234861 0.062561
0.062561 0.234861 0.062561
0.062561 0.234861 0.062561
0.062561 0.234861 0.062561
0.062561 0.234777 0.062561
0.062561 0.234593 0.062561
0.062561 0.234348 0.062561
0.094149 0.233965 0.062561
0.160400 0.233355 0.062561
0.219536 0.232375 0.062561
0.286646 0.230613 0.062561
0.360780 0.227675 0.062561
0.437456 0.223292 0.062561
0.512827 0.217339 0.062561
0.586831 0.209511 0.062561
0.659454 0.199391 0.066051
0.730432 0.186393 0.075660
0.799415 0.169585 0.086630
0.866006 0.147205 0.098843
0.918866 0.118485 0.110871
0.918866 0.087018 0.120421
0.918866 0.062561 0.127290
0.918866 0.062561 0.132061
0.918866 0.062561 0.135198
0.918866 0.062561 0.137104
0.918866 0.062561 0.138154
0.918866 0.062561 0.138710
0.918866 0.062561 0.139126
0.918866 0.062561 0.139517
0.918866 0.062561 0.139517
0.918866 0.062561 0.139517
0.918866 0.062561 0.139517
0.062561 0.289691 0.062561
0.062561 0.289691 0.062561
0.062561 0.289691 0.062561
0.062561 0.289691 0.062561
0.062561 0.289632 0.062561
0.062561 0.289500 0.062561
0.062561 0.289325 0.062561
0.062561 0.289052 0.062561
0.113420 0.288617 0.062561
0.194556 0.287921 0.062561
0.271076 0.286673 0.062561
0.350272 0.284606 0.062561
0.429868 0.281557 0.062561
0.507022 0.277482 0.062561
0.582204 0.272248 0.062561
0.655654 0.265697 0.062561
0.727233 0.257669 0.062561
0.796668 0.247986 0.066981
0.863606 0.236444 0.079194
0.918866 0.224130 0.091222
0.918866 0.212800 0.101403
0.918866 0.203060 0.109502
0.918866 0.195310 0.115380
0.918866 0.189691 0.119186
0.918866 0.186043 0.121476
0.918866 0.183951 0.122732
0.918866 0.182819 0.123394
0.918866 0.181960 0.123889
0.918866 0.181143 0.124353
0.918866 0.181143 0.124353
0.918866 0.181143 0.124353
0.918866 0.181143 0.124353
0.062561 0.354323 0.062561
0.062561 0.354323 0.062561
0.062561 0.354323 0.062561
0.062561 0.354323 0.062561
0.062561 0.354280 0.062561
0.062561 0.354184 0.062561
0.062561 0.354059 0.062561
0.062561 0.353861 0.062561
0.062561 0.353548 0.062561
0.136917 0.353048 0.062561
0.241883 0.352152 0.062561
0.331828 0.350675 0.062561
0.416921 0.348508 0.062561
0.497253 0.345638 0.062561
0.574479 0.341992 0.062561
0.649338 0.337501 0.062561
0.721934 0.332105 0.062561
0.792128 0.325767 0.062561
0.859646 0.318466 0.062561
0.918383 0.311001 0.062561
0.918866 0.304448 0.069172
0.918866 0.299067 0.077271
0.918866 0.294961 0.083293
0.918866 0.292085 0.087434
0.918866 0.290263 0.090021
0.918866 0.289235 0.091471
0.918866 0.288684 0.092244
0.918866 0.288268 0.092826
0.918866 0.287875 0.093375
0.918866 0.287875 0.093375
0.918866 0.287875 0.093375
0.918866 0.287875 0.093375
0.062561 0.423460 0.062561
0.062561 0.423460 0.062561
0.062561 0.423460 0.062561
0.062561 0.423460 0.062561
0.062561 0.423427 0.062561
0.062561 0.423357 0.062561
0.062561 0.423263 0.062561
0.062561 0.423115 0.062561
0.062561 0.422882 0.062561
0.062561 0.422509 0.062561
0.185254 0.421842 0.062561
0.301581 0.420744 0.062561
0.396816 0.419140 0.062561
0.482449 0.417023 0.062561
0.562925 0.414351 0.062561
0.639964 0.411083 0.062561
0.714108 0.407195 0.062561
0.785444 0.402682 0.062561
0.853831 0.397556 0.062561
0.913185 0.392401 0.062561
0.918866 0.387948 0.062561
0.918866 0.384346 0.062561
0.918866 0.381631 0.062561
0.918866 0.379745 0.062561
0.918866 0.378559 0.062561
0.918866 0.377892 0.062561
0.918866 0.377536 0.062561
0.918866 0.377267 0.062561
0.918866 0.377013 0.062561
0.918866 0.377013 0.062561
0.918866 0.377013 0.062561
0.918866 0.377013 0.062561
0.062561 0.492644 0.062561
0.062561 0.492644 0.062561
0.062561 0.492644 0.062561
0.062561 0.492644 0.062561
0.062561 0.492619 0.062561
0.062561 0.492563 0.062561
0.062561 0.492490 0.062561
0.062561 0.492376 0.062561
0.062561 0.492194 0.062561
0.062561 0.491903 0.062561
0.062561 0.491385 0.062561
0.252480 0.490532 0.062561
0.367658 0.489288 0.062561
0.461848 0.487650 0.062561
0.547171 0.485590 0.062561
0.627331 0.483080 0.062561
0.703638 0.480109 0.062561
0.776545 0.476679 0.062561
0.846113 0.472813 0.062561
0.906303 0.468952 0.062561
0.918866 0.465644 0.062561
0.918866 0.462984 0.062561
0.918866 0.460989 0.062561
0.918866 0.459609 0.062561
0.918866 0.458744 0.062561
0.918866 0.458258 0.062561
0.918866 0.457998 0.062561
0.918866 0.457802 0.062561
0.918866 0.457617 0.062561
0.918866 0.457617 0.062561
0.918866 0.457617 0.062561
0.918866 0.457617 0.062561
0.062561 0.561257 0.062561
0.062561 0.561257 0.062561
0.062561 0.561257 0.062561
0.062561 0.561257 0.062561
0.062561 0.561237 0.062561
0.062561 0.561192 0.062561
0.062561 0.561133 0.062561
0.062561 0.561041 0.062561
0.062561 0.560895 0.062561
0.062561 0.560661 0.062561
0.062561 0.560244 0.062561
0.152370 0.559558 0.062561
0.324826 0.558559 0.062561
0.433737 0.557246 0.062561
0.526344 0.555596 0.062561
0.610911 0.553592 0.062561
0.690166 0.551225 0.062561
0.765172 0.548503 0.062561
0.836293 0.545445 0.062561
0.897572 0.542406 0.062561
0.918866 0.539811 0.062561
0.918866 0.537732 0.062561
0.918866 0.536178 0.062561
0.918866 0.535104 0.062561
0.918866 0.534431 0.062561
0.918866 0.534054 0.062561
0.918866 0.533852 0.062561
0.918866 0.533701 0.062561
0.918866 0.533558 0.062561
0.918866 0.533558 0.062561
0.918866 0.533558 0.062561
0.918866 0.533558 0.062561
0.062561 0.629004 0.062561
0.062561 0.629004 0.062561
0.062561 0.629004 0.062561
0.062561 0.629004 0.062561
0.062561 0.628987 0.062561
0.062561 0.628950 0.062561
0.062561 0.628901 0.062561
0.062561 0.628825 0.062561
0.062561 0.628704 0.062561
0.062561 0.628511 0.062561
0.062561 0.628166 0.062561
0.062561 0.627600 0.062561
0.256143 0.626774 0.062561
0.395149 0.625691 0.062561
0.499187 0.624333 0.062561
0.590025 0.622683 0.062561
0.673272 0.620740 0.062561
0.751034 0.618509 0.062561
0.824159 0.616009 0.062561
0.886823 0.613531 0.062561
0.918866 0.611420 0.062561
0.918866 0.609732 0.062561
0.918866 0.608471 0.062561
0.918866 0.607603 0.062561
0.918866 0.607059 0.062561
0.918866 0.606754 0.062561
0.918866 0.606590 0.062561
0.918866 0.606468 0.062561
0.918866 0.606352 0.062561
0.918866 0.606352 0.062561
0.918866 0.606352 0.062561
0.918866 0.606352 0.062561
0.062561 0.695476 0.062561
0.062561 0.695476 0.062561
0.062561 0.695476 0.062561
0.062561 0.695476 0.062561
0.062561 0.695462 0.062561
0.062561 0.695431 0.062561
0.062561 0.695389 0.062561
0.062561 0.695325 0.062561
0.062561 0.695223 0.062561
0.062561 0.695059 0.062561
0.062561 0.694768 0.062561
0.062561 0.694290 0.062561
0.072357 0.693593 0.062561
0.340107 0.692679 0.062561
0.463845 0.691533 0.062561
0.563843 0.690144 0.062561
0.652508 0.688509 0.062561
0.733862 0.686635 0.062561
0.809533 0.684537 0.062561
0.873931 0.682461 0.062561
0.918866 0.680696 0.062561
0.918866 0.679286 0.062561
0.918866 0.678234 0.062561
0.918866 0.677509 0.062561
0.918866 0.677056 0.062561
0.918866 0.676801 0.062561
0.918866 0.676666 0.062561
0.918866 0.676564 0.062561
0.918866 0.676468 0.062561
0.918866 0.676468 0.062561
0.918866 0.676468 0.062561
0.918866 0.676468 0.062561
0.062561 0.760252 0.062561
0.062561 0.760252 0.062561
0.062561 0.760252 0.062561
0.062561 0.760252 0.062561
0.062561 0.760240 0.062561
0.062561 0.760213 0.062561
0.062561 0.760178 0.062561
0.062561 0.760122 0.062561
0.062561 0.760034 0.062561
0.062561 0.759893 0.062561
0.062561 0.759643 0.062561
0.062561 0.759231 0.062561
0.062561 0.758632 0.062561
0.250779 0.757845 0.062561
0.417122 0.756860 0.062561
0.531242 0.755667 0.062561
0.627367 0.754263 0.062561
0.713397 0.752655 0.062561
0.792274 0.750858 0.062561
0.858810 0.749081 0.062561
0.909018 0.747572 0.062561
0.918866 0.746367 0.062561
0.918866 0.745469 0.062561
0.918866 0.744852 0.062561
0.918866 0.744464 0.062561
0.918866 0.744248 0.062561
0.918866 0.744132 0.062561
0.918866 0.744045 0.062561
0.918866 0.743962 0.062561
0.918866 0.743962 0.062561
0.918866 0.743962 0.062561
0.918866 0.743962 0.062561
0.062561 0.822899 0.062561
0.062561 0.822899 0.062561
0.062561 0.822899 0.062561
0.062561 0.822899 0.062561
0.062561 0.822888 0.062561
0.062561 0.822865 0.062561
0.062561 0.822834 0.062561
0.062561 0.822785 0.062561
0.062561 0.822708 0.062561
0.062561 0.822585 0.062561
0.062561 0.822365 0.062561
0.062561 0.822005 0.062561
0.062561 0.821480 0.062561
0.062561 0.820793 0.062561
0.352175 0.819931 0.062561
0.490521 0.818889 0.062561
0.597234 0.817662 0.062561
0.689387 0.816259 0.062561
0.772284 0.814692 0.062561
0.841430 0.813143 0.062561
0.893264 0.811829 0.062561
0.918866 0.810780 0.062561
0.918866 0.809999 0.062561
0.918866 0.809462 0.062561
0.918866 0.809126 0.062561
0.918866 0.808937 0.062561
0.918866 0.808836 0.062561
0.918866 0.808761 0.062561
0.918866 0.808689 0.062561
0.918866 0.808689 0.062561
0.918866 0.808689 0.062561
0.918866 0.808689 0.062561
0.062561 0.877600 0.062561
0.062561 0.877600 0.062561
0.062561 0.877600 0.062561
0.062561 0.877600 0.062561
0.062561 0.877591 0.062561
0.062561 0.877570 0.062561
0.062561 0.877542 0.062561
0.062561 0.877499 0.062561
0.062561 0.877429 0.062561
0.062561 0.877319 0.062561
0.062561 0.877122 0.062561
0.062561 0.876799 0.062561
0.062561 0.876328 0.062561
0.062561 0.875711 0.062561
0.259574 0.874939 0.062561
0.444049 0.874005 0.062561
0.564853 0.872906 0.062561
0.664290 0.871650 0.062561
0.751709 0.870247 0.062561
0.823703 0.868861 0.062561
0.877279 0.867686 0.062561
0.916259 0.866749 0.062561
0.918866 0.866051 0.062561
0.918866 0.865571 0.062561
0.918866 0.865270 0.062561
0.918866 0.865102 0.062561
0.918866 0.865012 0.062561
0.918866 0.864944 0.062561
0.918866 0.864880 0.062561
0.918866 0.864880 0.062561
0.918866 0.864880 0.062561
0.918866 0.864880 0.062561
0.062561 0.918866 0.062561
0.062561 0.918866 0.062561
0.062561 0.918866 0.062561
0.062561 0.918866 0.062561
0.062561 0.918866 0.062561
0.062561 0.918866 0.062561
0.062561 0.918866 0.062561
0.062561 0.918866 0.062561
0.062561 0.918866 0.062561
0.062561 0.918866 0.062561
0.062561 0.918866 0.062561
0.062561 0.918866 0.062561
0.062561 0.918606 0.062561
0.062561 0.918037 0.062561
0.063631 0.917324 0.062561
0.397270 0.916461 0.062561
0.534803 0.915447 0.062561
0.641731 0.914287 0.062561
0.733523 0.912993 0.062561
0.808178 0.911716 0.062561
0.863352 0.910632 0.062561
0.903337 0.909768 0.062561
0.918866 0.909125 0.062561
0.918866 0.908682 0.062561
0.918866 0.908406 0.062561
0.918866 0.908251 0.062561
0.918866 0.908168 0.062561
0.918866 0.908106 0.062561
0.918866 0.908047 0.062561
0.918866 0.908047 0.062561
0.918866 0.908047 0.062561
0.918866 0.908047 0.062561
0.062561 0.918866 0.062561
0.062561 0.918866 0.062561
0.062561 0.918866 0.062561
0.062561 0.918866 0.062561
0.062561 0.918866 0.062561
0.062561 0.918866 0.062561
0.062561 0.918866 0.062561
0.062561 0.918866 0.062561
0.062561 0.918866 0.062561
0.062561 0.918866 0.062561
0.062561 0.918866 0.062561
0.062561 0.918866 0.062561
0.062561 0.918866 0.062561
0.062561 0.918866 0.062561
0.062561 0.918866 0.062561
0.352305 0.918866 0.062561
0.508724 0.918866 0.062561
0.622791 0.918866 0.062561
0.718497 0.918866 0.062561
0.795461 0.918866 0.062561
0.851998 0.918866 0.062561
0.892830 0.918866 0.062561
0.918866 0.918866 0.062561
0.918866 0.918866 0.062561
0.918866 0.918866 0.062561
0.918866 0.918866 0.062561
0.918866 0.918866 0.062561
0.918866 0.918866 0.062561
0.918866 0.918866 0.062561
0.918866 0.918866 0.062561
0.918866 0.918866 0.062561
0.918866 0.918866 0.062561
0.062561 0.918866 0.062561
0.062561 0.918866 0.062561
0.062561 0.918866 0.062561
0.062561 0.918866 0.062561
0.062561 0.918866 0.062561
0.062561 0.918866 0.062561
0.062561 0.918866 0.062561
0.062561 0.918866 0.062561
0.062561 0.918866 0.062561
0.062561 0.918866 0.062561
0.062561 0.918866 0.062561
0.062561 0.918866 0.062561
0.062561 0.918866 0.062561
0.062561 0.918866 0.062561
0.062561 0.918866 0.062561
0.311548 0.918866 0.062561
0.487790 0.918866 0.062561
0.608058 0.918866 0.062561
0.706972 0.918866 0.062561
0.785778 0.918866 0.062561
0.843386 0.918866 0.062561
0.884879 0.918866 0.062561
0.913730 0.918866 0.062561
0.918866 0.918866 0.062561
0.918866 0.918866 0.062561
0.918866 0.918866 0.062561
0.918866 0.918866 0.062561
0.918866 0.918866 0.062561
0.918866 0.918866 0.062561
0.918866 0.918866 0.062561
0.918866 0.918866 0.062561
0.918866 0.918866 0.062561
0.062561 0.918866 0.062561
0.062561 0.918866 0.062561
0.062561 0.918866 0.062561
0.062561 0.918866 0.062561
0.062561 0.918866 0.062561
0.062561 0.918866 0.062561
0.062561 0.918866 0.062561
0.062561 0.918866 0.062561
0.062561 0.918866 0.062561
0.062561 0.918866 0.062561
0.062561 0.918866 0.062561
0.062561 0.918866 0.062561
0.062561 0.918866 0.062561
0.062561 0.918866 0.062561
0.062561 0.918866 0.062561
0.277542 0.918866 0.062561
0.472486 0.918866 0.062561
0.597571 0.918866 0.062561
0.698861 0.918866 0.062561
0.779001 0.918866 0.062561
0.837378 0.918866 0.062561
0.879343 0.918866 0.062561
0.908487 0.918866 0.062561
0.918866 0.918866 0.062561
0.918866 0.918866 0.062561
0.918866 0.918866 0.062561
0.918866 0.918866 0.062561
0.918866 0.918866 0.062561
0.918866 0.918866 0.062561
0.918866 0.918866 0.062561
0.918866 0.918866 0.062561
0.918866 0.918866 0.062561
0.062561 0.918866 0.062561
0.062561 0.918866 0.062561
0.062561 0.918866 0.062561
0.062561 0.918866 0.062561
0.062561 0.918866 0.062561
0.062561 0.918866 0.062561
0.062561 0.918866 0.062561
0.062561 0.918866 0.062561
0.062561 0.918866 0.062561
0.062561 0.918866 0.062561
0.062561 0.918866 0.062561
0.062561 0.918866 0.062561
0.062561 0.918866 0.062561
0.062561 0.918866 0.062561
0.062561 0.918866 0.062561
0.252342 0.918866 0.062561
0.462490 0.918866 0.062561
0.590858 0.918866 0.062561
0.693710 0.918866 0.062561
0.774716 0.918866 0.062561
0.833586 0.918866 0.062561
0.875852 0.918866 0.062561
0.905184 0.918866 0.062561
0.918866 0.918866 0.062561
0.918866 0.918866 0.062561
0.918866 0.918866 0.062561
0.918866 0.918866 0.062561
0.918866 0.918866 0.062561
0.918866 0.918866 0.062561
0.918866 0.918866 0.062561
0.918866 0.918866 0.062561
0.918866 0.918866 0.062561
0.062561 0.918866 0.062561
0.062561 0.918866 0.062561
0.062561 0.918866 0.062561
0.062561 0.918866 0.062561
0.062561 0.918866 0.062561
0.062561 0.918866 0.062561
0.062561 0.918866 0.062561
0.062561 0.918866 0.062561
0.062561 0.918866 0.062561
0.062561 0.918866 0.062561
0.062561 0.918866 0.062561
0.062561 0.918866 0.062561
0.062561 0.918866 0.062561
0.062561 0.918866 0.062561
0.062561 0.918866 0.062561
0.236273 0.918866 0.062561
0.456732 0.918866 0.062561
0.587043 0.918866 0.062561
0.690798 0.918866 0.062561
0.772298 0.918866 0.062561
0.831450 0.918866 0.062561
0.873887 0.918866 0.062561
0.903326 0.918866 0.062561
0.918866 0.918866 0.062561
0.918866 0.918866 0.062561
0.918866 0.918866 0.062561
0.918866 0.918866 0.062561
0.918866 0.918866 0.062561
0.918866 0.918866 0.062561
0.918866 0.918866 0.062561
0.918866 0.918866 0.062561
0.918866 0.918866 0.062561
0.062561 0.918866 0.062561
0.062561 0.918866 0.062561
0.062561 0.918866 0.062561
0.062561 0.918866 0.062561
0.062561 0.918866 0.062561
0.062561 0.918866 0.062561
0.062561 0.918866 0.062561
0.062561 0.918866 0.062561
0.062561 0.918866 0.062561
0.062561 0.918866 0.062561
0.062561 0.918866 0.062561
0.062561 0.918866 0.062561
0.062561 0.918866 0.062561
0.062561 0.918866 0.062561
0.062561 0.918866 0.062561
0.226940 0.918866 0.062561
0.453609 0.918866 0.062561
0.584989 0.918866 0.062561
0.689236 0.918866 0.062561
0.771003 0.918866 0.062561
0.830306 0.918866 0.062561
0.872835 0.918866 0.062561
0.902331 0.918866 0.062561
0.918866 0.918866 0.062561
0.918866 0.918866 0.062561
0.918866 0.918866 0.062561
0.918866 0.918866 0.062561
0.918866 0.918866 0.062561
0.918866 0.918866 0.062561
0.918866 0.918866 0.062561
0.918866 0.918866 0.062561
0.918866 0.918866 0.062561
0.062561 0.918866 0.062561
0.062561 0.918866 0.062561
0.062561 0.918866 0.062561
0.062561 0.918866 0.062561
0.062561 0.918866 0.062561
0.062561 0.918866 0.062561
0.062561 0.918866 0.062561
0.062561 0.918866 0.062561
0.062561 0.918866 0.062561
0.062561 0.918866 0.062561
0.062561 0.918866 0.062561
0.062561 0.918866 0.062561
0.062561 0.918866 0.062561
0.062561 0.918866 0.062561
0.062561 0.918866 0.062561
0.219493 0.918866 0.062561
0.451236 0.918866 0.062561
0.583437 0.918866 0.062561
0.688056 0.918866 0.062561
0.770026 0.918866 0.062561
