data/AlexaV3_EI1000_LogC2Video_Rec709_LL_aftereffects3d.cube
# Alexa conversion LUT, logc2video, itu709. Legal in/legal out.
# created by alexalutconv (2.09)
LUT_3D_SIZE 8
DOMAIN_MIN 0.000000 0.000000 0.000000
DOMAIN_MAX 0.903226 0.903226 0.903226
0.062561 0.062561 0.062561
0.074074 0.062561 0.062645
0.203954 0.062561 0.064070
0.447947 0.062561 0.073766
0.734968 0.062561 0.103770
0.918866 0.062561 0.142250
0.918866 0.062561 0.155658
0.918866 0.062561 0.157656
0.062561 0.072507 0.062561
0.070963 0.072246 0.062561
0.202716 0.067784 0.063124
0.447601 0.062561 0.072820
0.734816 0.062561 0.102824
0.918866 0.062561 0.141596
0.918866 0.062561 0.155087
0.918866 0.062561 0.157096
0.062561 0.192221 0.062561
0.062561 0.192107 0.062561
0.179455 0.190151 0.062561
0.441619 0.175922 0.062561
0.732216 0.113168 0.086683
0.918866 0.062561 0.129639
0.918866 0.062561 0.144810
0.918866 0.062561 0.147036
0.062561 0.423460 0.062561
0.062561 0.423427 0.062561
0.062561 0.422882 0.062561
0.396816 0.419140 0.062561
0.714108 0.407195 0.062561
0.918866 0.387948 0.062561
0.918866 0.378559 0.062561
0.918866 0.377013 0.062561
0.062561 0.695476 0.062561
0.062561 0.695462 0.062561
0.062561 0.695223 0.062561
0.072357 0.693593 0.062561
0.652508 0.688509 0.062561
0.918866 0.680696 0.062561
0.918866 0.677056 0.062561
0.918866 0.676468 0.062561
0.062561 0.918866 0.062561
0.062561 0.918866 0.062561
0.062561 0.918866 0.062561
0.062561 0.918606 0.062561
0.534803 0.915447 0.062561
0.863352 0.910632 0.062561
0.918866 0.908406 0.062561
0.918866 0.908047 0.062561
0.062561 0.918866 0.062561
0.062561 0.918866 0.062561
0.062561 0.918866 0.062561
0.062561 0.918866 0.062561
0.462490 0.918866 0.062561
0.833586 0.918866 0.062561
0.918866 0.918866 0.062561
0.918866 0.918866 0.062561
0.062561 0.918866 0.062561
0.062561 0.918866 0.062561
0.062561 0.918866 0.062561
0.062561 0.918866 0.062561
0.448977 0.918866 0.062561
0.828628 0.918866 0.062561
0.918866 0.918866 0.062561
0.918866 0.918866 0.062561
0.062561 0.062561 0.071177
0.073425 0.062561 0.071260
0.203697 0.062561 0.072686
0.447875 0.062561 0.082381
0.734936 0.062561 0.112367
0.918866 0.062561 0.148014
0.918866 0.062561 0.160715
0.918866 0.062561 0.162619
0.062561 0.070576 0.070230
0.070314 0.070314 0.070314
0.202456 0.065852 0.071740
0.447529 0.062561 0.081436
0.734784 0.062561 0.111436
0.918866 0.062561 0.147398
0.918866 0.062561 0.160171
0.918866 0.062561 0.162086
0.062561 0.191379 0.062561
0.062561 0.191264 0.062561
0.179140 0.189294 0.062561
0.441545 0.174955 0.065295
0.732184 0.111274 0.095299
0.918866 0.062561 0.136217
0.918866 0.062561 0.150429
0.918866 0.062561 0.152532
0.062561 0.423224 0.062561
0.062561 0.423192 0.062561
0.062561 0.422645 0.062561
0.396728 0.418900 0.062561
0.714074 0.406944 0.062561
0.918866 0.387676 0.062561
0.918866 0.378275 0.062561
0.918866 0.376727 0.062561
0.062561 0.695372 0.062561
0.062561 0.695358 0.062561
0.062561 0.695119 0.062561
0.071708 0.693489 0.062561
0.652469 0.688403 0.062561
0.918866 0.680588 0.062561
0.918866 0.676948 0.062561
0.918866 0.676359 0.062561
0.062561 0.918866 0.062561
0.062561 0.918866 0.062561
0.062561 0.918866 0.062561
0.062561 0.918541 0.062561
0.534749 0.915382 0.062561
0.863328 0.910566 0.062561
0.918866 0.908339 0.062561
0.918866 0.907981 0.062561
0.062561 0.918866 0.062561
0.062561 0.918866 0.062561
0.062561 0.918866 0.062561
0.062561 0.918866 0.062561
0.462422 0.918866 0.062561
0.833560 0.918866 0.062561
0.918866 0.918866 0.062561
0.918866 0.918866 0.062561
0.062561 0.918866 0.062561
0.062561 0.918866 0.062561
0.062561 0.918866 0.062561
0.062561 0.918866 0.062561
0.448905 0.918866 0.062561
0.828602 0.918866 0.062561
0.918866 0.918866 0.062561
0.918866 0.918866 0.062561
0.062561 0.062561 0.181299
0.062561 0.062561 0.181338
0.199221 0.062561 0.182015
0.446638 0.062561 0.186515
0.734395 0.062561 0.199469
0.918866 0.062561 0.216875
0.918866 0.062561 0.224179
0.918866 0.062561 0.225319
0.062561 0.062561 0.180848
0.062561 0.062561 0.180888
0.197936 0.062561 0.181567
0.446290 0.062561 0.186083
0.734242 0.062561 0.199081
0.918866 0.062561 0.216535
0.918866 0.062561 0.223855
0.918866 0.062561 0.224998
0.062561 0.176015 0.172866
0.062561 0.175884 0.172909
0.173637 0.173637 0.173637
0.440278 0.156990 0.178466
0.731639 0.078319 0.192259
0.918866 0.062561 0.210587
0.918866 0.062561 0.218222
0.918866 0.062561 0.219412
0.062561 0.419163 0.091294
0.062561 0.419130 0.091378
0.062561 0.418575 0.092803
0.395216 0.414769 0.102499
0.713506 0.402609 0.129978
0.918866 0.382976 0.160295
0.918866 0.373379 0.171663
0.918866 0.371798 0.173386
0.062561 0.693603 0.062561
0.062561 0.693589 0.062561
0.062561 0.693348 0.062561
0.062561 0.691712 0.062561
0.651808 0.686604 0.062561
0.918866 0.678754 0.062561
0.918866 0.675097 0.062561
0.918866 0.674505 0.062561
0.062561 0.918612 0.062561
0.062561 0.918604 0.062561
0.062561 0.918454 0.062561
0.062561 0.917435 0.062561
0.533827 0.914268 0.062561
0.862915 0.909443 0.062561
0.918866 0.907212 0.062561
0.918866 0.906852 0.062561
0.062561 0.918866 0.062561
0.062561 0.918866 0.062561
0.062561 0.918866 0.062561
0.062561 0.918866 0.062561
0.461248 0.918866 0.062561
0.833122 0.918866 0.062561
0.918866 0.918866 0.062561
0.918866 0.918866 0.062561
0.062561 0.918866 0.062561
0.062561 0.918866 0.062561
0.062561 0.918866 0.062561
0.062561 0.918866 0.062561
0.447672 0.918866 0.062561
0.828160 0.918866 0.062561
0.918866 0.918866 0.062561
0.918866 0.918866 0.062561
0.062561 0.062561 0.400665
0.062561 0.062561 0.400676
0.163404 0.062561 0.400866
0.438069 0.062561 0.402159
0.730693 0.062561 0.406116
0.918866 0.062561 0.411984
0.918866 0.062561 0.414635
0.918866 0.062561 0.415058
0.062561 0.062561 0.400538
0.062561 0.062561 0.400549
0.161652 0.062561 0.400740
0.437710 0.062561 0.402033
0.730540 0.062561 0.405992
0.918866 0.062561 0.411863
0.918866 0.062561 0.414515
0.918866 0.062561 0.414939
0.062561 0.062561 0.398368
0.062561 0.062561 0.398380
0.125685 0.062561 0.398572
0.431499 0.062561 0.399877
0.727915 0.062561 0.403870
0.918866 0.062561 0.409792
0.918866 0.062561 0.412465
0.918866 0.062561 0.412892
0.062561 0.389637 0.383066
0.062561 0.389600 0.383078
0.062561 0.388975 0.383283
0.384674 0.384674 0.384674
0.709620 0.370839 0.388926
0.918866 0.348147 0.395217
0.918866 0.336867 0.398053
0.918866 0.334994 0.398505
0.062561 0.681362 0.327852
0.062561 0.681348 0.327867
0.062561 0.681100 0.328132
0.062561 0.679413 0.329921
0.647281 0.674148 0.335359
0.918866 0.666050 0.343324
0.918866 0.662275 0.346884
0.918866 0.661663 0.347451
0.062561 0.911041 0.190131
0.062561 0.911032 0.190168
0.062561 0.910880 0.190797
0.062561 0.909846 0.194987
0.527486 0.906635 0.207139
0.860097 0.901740 0.223637
0.918866 0.899477 0.230609
0.918866 0.899112 0.231699
0.062561 0.918866 0.062561
0.062561 0.918866 0.062561
0.062561 0.918866 0.062561
0.062561 0.918866 0.062561
0.453132 0.918866 0.062561
0.830132 0.918866 0.087952
0.918866 0.918866 0.108802
0.918866 0.918866 0.112143
0.062561 0.918866 0.062561
0.062561 0.918866 0.062561
0.062561 0.918866 0.062561
0.062561 0.918866 0.062561
0.439137 0.918866 0.062561
0.825139 0.918866 0.062561
0.918866 0.918866 0.070823
0.918866 0.918866 0.074178
0.062561 0.062561 0.658714
0.062561 0.062561 0.658719
0.062561 0.062561 0.658802
0.409624 0.062561 0.659371
0.719036 0.062561 0.661124
0.918866 0.062561 0.663761
0.918866 0.062561 0.664966
0.918866 0.062561 0.665160
0.062561 0.062561 0.658658
0.062561 0.062561 0.658663
0.062561 0.062561 0.658747
0.409222 0.062561 0.659316
0.718879 0.062561 0.661069
0.918866 0.062561 0.663706
0.918866 0.062561 0.664912
0.918866 0.062561 0.665106
0.062561 0.062561 0.657711
0.062561 0.062561 0.657716
0.062561 0.062561 0.657800
0.402268 0.062561 0.658369
0.716181 0.062561 0.660126
0.918866 0.062561 0.662770
0.918866 0.062561 0.663979
0.918866 0.062561 0.664173
0.062561 0.259843 0.651201
0.062561 0.259772 0.651206
0.062561 0.258563 0.651291
0.348602 0.250085 0.651870
0.697364 0.220402 0.653657
0.918866 0.157210 0.656344
0.918866 0.107346 0.657573
0.918866 0.096847 0.657770
0.062561 0.640929 0.630333
0.062561 0.640913 0.630338
0.062561 0.640640 0.630428
0.062561 0.638770 0.631040
0.632926 0.632926 0.632926
0.912015 0.623909 0.635761
0.918866 0.619693 0.637056
0.918866 0.619011 0.637265
0.062561 0.886909 0.596373
0.062561 0.886900 0.596379
0.062561 0.886741 0.596478
0.062561 0.885660 0.597149
0.507015 0.882299 0.599216
0.851278 0.877172 0.602321
0.918866 0.874800 0.603738
0.918866 0.874418 0.603966
0.062561 0.918866 0.579636
0.062561 0.918866 0.579642
0.062561 0.918866 0.579745
0.062561 0.918866 0.580449
0.426360 0.918866 0.582615
0.820762 0.918866 0.585868
0.918866 0.918866 0.587352
0.918866 0.918866 0.587590
0.062561 0.918866 0.576867
0.062561 0.918866 0.576873
0.062561 0.918866 0.576977
0.062561 0.918866 0.577686
0.410815 0.918866 0.579870
0.815671 0.918866 0.583149
0.918866 0.918866 0.584644
0.918866 0.918866 0.584884
0.062561 0.062561 0.871503
0.062561 0.062561 0.871506
0.062561 0.062561 0.871558
0.359129 0.062561 0.871913
0.700774 0.062561 0.873011
0.918866 0.062561 0.874667
0.918866 0.062561 0.875426
0.918866 0.062561 0.875548
0.062561 0.062561 0.871468
0.062561 0.062561 0.871471
0.062561 0.062561 0.871523
0.358631 0.062561 0.871878
0.700609 0.062561 0.872977
0.918866 0.062561 0.874633
0.918866 0.062561 0.875392
0.918866 0.062561 0.875514
0.062561 0.062561 0.870876
0.062561 0.062561 0.870879
0.062561 0.062561 0.870931
0.349950 0.062561 0.871287
0.697792 0.062561 0.872386
0.918866 0.062561 0.874045
0.918866 0.062561 0.874804
0.918866 0.062561 0.874926
0.062561 0.062561 0.866831
0.062561 0.062561 0.866834
0.062561 0.062561 0.866887
0.278320 0.062561 0.867245
0.678103 0.062561 0.868353
0.918866 0.062561 0.870024
0.918866 0.062561 0.870790
0.918866 0.062561 0.870914
0.062561 0.570120 0.854108
0.062561 0.570101 0.854111
0.062561 0.569767 0.854165
0.062561 0.567492 0.854533
0.610113 0.560352 0.855668
0.899896 0.549255 0.857381
0.918866 0.544030 0.858166
0.918866 0.543182 0.858292
0.062561 0.848146 0.834230
0.062561 0.848136 0.834233
0.062561 0.847965 0.834290
0.062561 0.846798 0.834672
0.473153 0.843172 0.835853
0.837635 0.837635 0.837635
0.918866 0.835071 0.838452
0.918866 0.834657 0.838582
0.062561 0.918866 0.824826
0.062561 0.918866 0.824830
0.062561 0.918866 0.824887
0.062561 0.918866 0.825277
0.379625 0.918866 0.826481
0.806234 0.918866 0.828297
0.913843 0.918866 0.829129
0.918866 0.918866 0.829262
0.062561 0.918866 0.823296
0.062561 0.918866 0.823300
0.062561 0.918866 0.823357
0.062561 0.918866 0.823748
0.360606 0.918866 0.824956
0.800986 0.918866 0.826777
0.909601 0.918866 0.827612
0.918866 0.918866 0.827746
0.062561 0.062561 0.918866
0.062561 0.062561 0.918866
0.062561 0.062561 0.918866
0.331484 0.062561 0.918866
0.692111 0.062561 0.918866
0.918866 0.062561 0.918866
0.918866 0.062561 0.918866
0.918866 0.062561 0.918866
0.062561 0.062561 0.918866
0.062561 0.062561 0.918866
0.062561 0.062561 0.918866
0.330917 0.062561 0.918866
0.691943 0.062561 0.918866
0.918866 0.062561 0.918866
0.918866 0.062561 0.918866
0.918866 0.062561 0.918866
0.062561 0.062561 0.918866
0.062561 0.062561 0.918866
0.062561 0.062561 0.918866
0.320975 0.062561 0.918866
0.689066 0.062561 0.918866
0.918866 0.062561 0.918866
0.918866 0.062561 0.918866
0.918866 0.062561 0.918866
0.062561 0.062561 0.918866
0.062561 0.062561 0.918866
0.062561 0.062561 0.918866
0.233547 0.062561 0.918866
0.668941 0.062561 0.918866
0.918866 0.062561 0.918866
0.918866 0.062561 0.918866
0.918866 0.062561 0.918866
0.062561 0.532053 0.918866
0.062561 0.532031 0.918866
0.062561 0.531657 0.918866
0.062561 0.529103 0.918866
0.599141 0.521064 0.918866
0.894236 0.508496 0.918866
0.918866 0.502547 0.918866
0.918866 0.501579 0.918866
0.062561 0.829298 0.912709
0.062561 0.829287 0.912711
0.062561 0.829109 0.912760
0.062561 0.827898 0.913088
0.456164 0.824130 0.914104
0.831241 0.818374 0.915637
0.918866 0.815707 0.916340
0.918866 0.815277 0.916453
0.062561 0.918866 0.904644
0.062561 0.918866 0.904647
0.062561 0.918866 0.904696
0.062561 0.918532 0.905030
0.354606 0.915371 0.906060
0.799411 0.910556 0.907616
0.908330 0.908330 0.908330
0.918866 0.907970 0.908444
0.062561 0.918866 0.903335
0.062561 0.918866 0.903338
0.062561 0.918866 0.903387
0.062561 0.918866 0.903722
0.333166 0.918866 0.904755
0.794087 0.918866 0.906315
0.904044 0.918866 0.907030
0.918866 0.918866 0.907144
0.062561 0.062561 0.918866
0.062561 0.062561 0.918866
0.062561 0.062561 0.918866
0.326674 0.062561 0.918866
0.690701 0.062561 0.918866
0.918866 0.062561 0.918866
0.918866 0.062561 0.918866
0.918866 0.062561 0.918866
0.062561 0.062561 0.918866
0.062561 0.062561 0.918866
0.062561 0.062561 0.918866
0.326093 0.062561 0.918866
0.690532 0.062561 0.918866
0.918866 0.062561 0.918866
0.918866 0.062561 0.918866
0.918866 0.062561 0.918866
0.062561 0.062561 0.918866
0.062561 0.062561 0.918866
0.062561 0.062561 0.918866
0.315900 0.062561 0.918866
0.687645 0.062561 0.918866
0.918866 0.062561 0.918866
0.918866 0.062561 0.918866
0.918866 0.062561 0.918866
0.062561 0.062561 0.918866
0.062561 0.062561 0.918866
0.062561 0.062561 0.918866
0.224955 0.062561 0.918866
0.667448 0.062561 0.918866
0.918866 0.062561 0.918866
0.918866 0.062561 0.918866
0.918866 0.062561 0.918866
0.062561 0.525492 0.918866
0.062561 0.525470 0.918866
0.062561 0.525088 0.918866
0.062561 0.522480 0.918866
0.597344 0.514267 0.918866
0.893320 0.501414 0.918866
0.918866 0.495323 0.918866
0.918866 0.494331 0.918866
0.062561 0.826198 0.918866
0.062561 0.826187 0.918866
0.062561 0.826008 0.918866
0.062561 0.824789 0.918866
0.453332 0.820997 0.918866
0.830205 0.815204 0.918866
0.918866 0.812519 0.918866
0.918866 0.812086 0.918866
0.062561 0.917105 0.916419
0.062561 0.917096 0.916422
0.062561 0.916946 0.916470
0.062561 0.915924 0.916796
0.350304 0.912749 0.917805
0.798304 0.907909 0.918866
0.907437 0.905672 0.918866
0.918866 0.905311 0.918866
0.062561 0.918866 0.915138
0.062561 0.918866 0.915141
0.062561 0.918866 0.915190
0.062561 0.918866 0.915516
0.328396 0.918866 0.916528
0.792968 0.918866 0.918054
0.903144 0.918866 0.918754
0.918866 0.918866 0.918866
