data/AlexaV3_EI1000_LogC2Video_Rec709_LL_aftereffects3d.cube
# Alexa conversion LUT, logc2video, itu709. Legal in/legal out.
# created by alexalutconv (2.09)
LUT_3D_SIZE 5
DOMAIN_MIN 0.000000 0.000000 0.000000
DOMAIN_MAX 0.903226 0.903226 0.903226
0.062561 0.062561 0.062561
0.165176 0.062561 0.063461
0.593345 0.062561 0.085966
0.918866 0.062561 0.147678
0.918866 0.062561 0.157656
0.062561 0.155470 0.062561
0.144909 0.153757 0.062561
0.590998 0.096434 0.075776
0.918866 0.062561 0.140796
0.918866 0.062561 0.151459
0.062561 0.561257 0.062561
0.062561 0.561041 0.062561
0.526344 0.555596 0.062561
0.918866 0.537732 0.062561
0.918866 0.533558 0.062561
0.062561 0.918866 0.062561
0.062561 0.918866 0.062561
0.062561 0.918866 0.062561
0.892830 0.918866 0.062561
0.918866 0.918866 0.062561
0.062561 0.918866 0.062561
0.062561 0.918866 0.062561
0.062561 0.918866 0.062561
0.871293 0.918866 0.062561
0.918866 0.918866 0.062561
0.062561 0.062561 0.146434
0.161260 0.062561 0.147027
0.592856 0.062561 0.160797
0.918866 0.062561 0.195591
0.918866 0.062561 0.202225
0.062561 0.142063 0.139459
0.140096 0.140096 0.140096
0.590506 0.075626 0.154793
0.918866 0.062561 0.191204
0.918866 0.062561 0.198067
0.062561 0.559659 0.062561
0.062561 0.559442 0.062561
0.525747 0.553971 0.062561
0.918866 0.536016 0.062561
0.918866 0.531819 0.062561
0.062561 0.918866 0.062561
0.062561 0.918866 0.062561
0.062561 0.918866 0.062561
0.892584 0.918866 0.062561
0.918866 0.918866 0.062561
0.062561 0.918866 0.062561
0.062561 0.918866 0.062561
0.062561 0.918866 0.062561
0.871036 0.918866 0.062561
0.918866 0.918866 0.062561
0.062561 0.062561 0.531387
0.062561 0.062561 0.531462
0.580400 0.062561 0.533345
0.918866 0.062561 0.539237
0.918866 0.062561 0.540553
0.062561 0.062561 0.530530
0.062561 0.062561 0.530606
0.577965 0.062561 0.532494
0.918866 0.062561 0.538401
0.918866 0.062561 0.539720
0.062561 0.516936 0.508326
0.062561 0.516688 0.508407
0.510433 0.510433 0.510433
0.918866 0.489723 0.516763
0.918866 0.484839 0.518175
0.062561 0.918866 0.424358
0.062561 0.918866 0.424468
0.062561 0.918866 0.427192
0.886387 0.918866 0.435636
0.918866 0.918866 0.437507
0.062561 0.918866 0.401131
0.062561 0.918866 0.401251
0.062561 0.918866 0.404236
0.864576 0.918866 0.413460
0.918866 0.918866 0.415498
0.062561 0.062561 0.901252
0.062561 0.062561 0.901283
0.537657 0.062561 0.902062
0.918866 0.062561 0.904522
0.918866 0.062561 0.905076
0.062561 0.062561 0.900899
0.062561 0.062561 0.900931
0.534888 0.062561 0.901709
0.918866 0.062561 0.904172
0.918866 0.062561 0.904726
0.062561 0.309998 0.891992
0.062561 0.309425 0.892024
0.456013 0.294489 0.892817
0.918866 0.236395 0.895320
0.918866 0.219648 0.895883
0.062561 0.877117 0.862736
0.062561 0.877015 0.862770
0.062561 0.874453 0.863608
0.866255 0.866255 0.866255
0.918866 0.864385 0.866851
0.062561 0.918866 0.855892
0.062561 0.918866 0.855925
0.062561 0.918866 0.856775
0.843553 0.918866 0.859457
0.918866 0.918866 0.860062
0.062561 0.062561 0.918866
0.062561 0.062561 0.918866
0.527183 0.062561 0.918866
0.918866 0.062561 0.918866
0.918866 0.062561 0.918866
0.062561 0.062561 0.918866
0.062561 0.062561 0.918866
0.524321 0.062561 0.918866
0.918866 0.062561 0.918866
0.918866 0.062561 0.918866
0.062561 0.210344 0.918866
0.062561 0.209276 0.918866
0.442129 0.179187 0.918866
0.918866 0.062561 0.918866
0.918866 0.062561 0.918866
0.062561 0.863435 0.918866
0.062561 0.863331 0.918866
0.062561 0.860700 0.918866
0.861597 0.852277 0.918866
0.918866 0.850355 0.918866
0.062561 0.918866 0.915138
0.062561 0.918866 0.915169
0.062561 0.918866 0.915928
0.838680 0.918866 0.918326
0.918866 0.918866 0.918866
